X: 30970
T: Oyster Wife's Rant, The
R: reel
M: 4/4
K: Adorian
a|ede^f g2fe|dGdB dGdg|ede^f g2 fe|dGdB A2 A>a|
ede^f g2fe|dGdB dGdg|ede^f gage|dBgB A2A||
a|eAed eAAB|dGdB dGGg|eAed eAAB|dGdB A2 A>a|
eAed eAAB|dGdB dGGg|ede^f gbge|dgBg A2A||
a|edef g2fe|dGdB dGdg|edef g2 fe|dGdB A2 A>a|
edef g2fe|dGdB dGdg|edef gage|dBgB A2A||
a|eAed eAAB|dGdB dGGg|eAed eAAB|dGdB A2 A>a|
eAed eAAB|dGdB dGGg|edef gbge|dgBg A2A||

